X:1
T:BWV 1005M
T:J. S. Bach
%%score { ( 1 4 ) | ( 2 3 ) }
L:1/8
Q:1/4=72
M:3/4
K:C
V:1 treble nm="Harp"
V:4 treble 
V:2 treble 
V:3 treble 
V:1
"^Adagio" C>D C>D C>E | D>E D>E D>E | d>e d>e d>f | e>f e>f e>f | g_b ba ag | f2 f2 f2 | %6
 ^f2 f2 f2 | ^f>g f>g f>g | ac' c'b ba | a>^f g>_b a/g/a/f/ | ga ^f3 g | %11
 _B/>A/G/4^F/4G/ ^C2- C/4D/4E/4F/4G/4A/4B/8c/8A/4 | _B>A B>A B_e | d3/2_e/4c/4 _B2 A>G | G2 G2 G2 | %15
 c2 c2 c2 | c>d c>d c>e | d2 d2 d2 | d>e d>e d>f | e2 e2 e2 | e>f e>f e>g | f2 z2 f2 | f2 z2 e>f | %23
 g>f g>f g>e | f>e f>e f2 | f>e f>a g>f | e2 z2 e2 | e2 d>e f2 | f>e f>d e3/2 z/ | ^F>A c>e d>c | %30
 B>c d2 d2 | d>c d>B c>d | e>^f f>g e>f | g2 g4- | g2 f4- | f2 e4 | a2 z z/ a/ b>c' | g3 a g<f | %38
 e/>f/g/4a/4^f/4g/4 c-c/4B/4A/4B/4 B>c | c2- c/ z/ z z2 | c2- c/ z/ z z2 | %41
 d2- d/_e/d/c/ B/4=A/4G/4F/4_E/4F/4D/ | _E>D E>D E>B | c_e/d/ c2 c/4B/4c/4B/4c/4B/4c/ | %44
 c z AC B,A | d/B/A/G/ A,/G/c/E/ ^F/c/a/c/ | !arpeggio!B6 | z6 |[M:2/2][Q:1/4=180] z4 G4 | %49
 A2 GF E2 F2 | G4 D2 E2 | F2 E2 F2 GF | z4 c4 | e2 dc B2 ^c2 | d4 A2 B2 | c2 B2 c2 dc | B2 cd e4- | %57
 e4 d4- | d2 B2 e2 d2 | a2 gf e2 ^f2 | g4 d2 e2 | f2 e2 f2 gf | e2 d2 e2 f2 | g2 f2 g2 ag | %64
 f2 g2 a4 | ^g4 =g4 | ^f4 =f4 | e4 ^f4 | z2 gf e2 d2 | ^c2 ag a2 c2 | d2 fe d2 c2 | B2 gf g2 B2 | %72
 c2 d2 e4 | A4 d4 | z GAB c4 | D4 E4 | F2 E2 F2 GF | E4 ^F4 | z4 d4 | ^c4 =c4 | B4 _B4 | A4 B4 | %82
 E2 cB A2 G2 | ^F2 dc d2 F2 | G2 _BA G2 F2 | E2 c_B c2 E2 | F2 AG FGEF | DAdc BAGF | E2 cB AceG | %89
 FAfe dcBA | GA/B/cd efg_B | Aeag fg/a/de/f/ | Bdef g4 | Aagf e2 ^f2 | d2 z2 d2 e2 | e2 fe f2 gf | %96
 e2 z2 z4 | e2 z2 d2 z2 | d2 cB c2 de | f2 fe f2 gf | e2 z2 z4 | e2 z2 z2 e2 | f2 z2 z4 | %103
 ^f2 z2 z2 f2 | g2 z2 g4 | g4 f4 | f4 e4 | e2 de fgac | BdcB AGFd | gBcE DcfB | cd_ef gabc' | %111
 ^f_edc Bc^FA, | G,CEG cege | cGEC G,2 B2 | cg/f/eg ceGc | EGCE G,edc | d/g/^f/e/dg BdGB | %117
 DGB,D G,dcB | ca/g/^fa cfAc | ^FADF Ac^fa | G,D^Fc BGEG | ^CE/F/GE _BG^ce | FAg^c dA_Bd | %123
 ^GB/c/dB fd^gb | Ece^g ac'^fa | ^d^f/g/af dBc^D | EB^da gb/a/ge | ^c_B/A/GE ^CD/E/A,B,/C/ | %128
 DA^cg fa/g/fd | B_A/G/FD B,C/D/G,A,/B,/ | CGBf eg/f/ec | fd/c/Bd ^GA/B/E^F/G/ | A,E^Gd cAFA | %133
 B,D^Ge dBGB | CE^Gf ecAc | Da/g/fe d_b/a/bd | Ed/e/fd ^gdbd | Ec/d/ec aec'e | EB/c/dB ^ged'e | %139
 EA/B/c^d ^fac'^d' | e'b^ge E2 e2 | f2 ed c2 d2 | e4 B2 c2 | d2 c2 d2 ed | c4 f4- | f2 ef gefg | %146
 ^c2 BA a4 | _b2 ag f2 g2 | a4 e2 f2 | g2 f^c g2 ag | f4 _b4 | _b2 ag abag | ^f4 g4 | g2 fe f4 | %154
 e4 a4 | B2 c2 d2 e2 | f2 e2 f2 gf | e4 e2 dc | B2 c2 d4 | A4 z4 | E4 ^F4 | G4 G4 | A2 GF E2 ^F2 | %163
 G4 D2 E2 | F2 E2 F2 GF | E4 E2 ^F2 | G2 ^F2 G2 AG | F4 F2 GF | E4 E2 FE | D4 d4 | e2 dc g4 | %171
 ^f4 =f4 | e4 ^f4 | g4 g4 | g2 fe f2 gf | e4 e4 | ^d4 =d4 | ^c4 =c4 | B4 ^c4 | d2 cB A2 B2 | %180
 c2 B2 c2 dc | B4 _B4 | A4 B4 | c4 g4 | a2 gf e2 ^f2 | g4 d2 e2 | f2 e2 f2 gf | e4 c2 dc | %188
 B4 G2 AG | F4 _B4- | B4 A4- | A4 d2 e2 | f2 e2 f2 gf | e2 ^c2 d4 | d4 ^c4 | d4 z4 | z4 g4 | %197
 b2 ag ^f2 g2 | a4 e2 ^f2 | g2 ^f2 g2 ag | ^f2 ga b4 | e4 a4 | z ag^f g4 | f4 z4 | e2 ^d2 e2 ^fe | %205
 ^d4 b4 | c'2 ba g2 a2 | b4 ^f2 g2 | a2 g2 a2 ba | g4 g4- | g2 ag ^f2 ge | b3 c' b2 a2 | %212
 g4 g/4^f/4g/4f/4g/4f/4g/4f/4 g/4f/4g/4f/4g/4f/4g/4f/4 | e2 gf egdg | ^c_bge ceAc | DA^cg fed=c | %216
 B_AFD B,DG,F | CEA,G DFB,A | EGC_B FADc | GBdg dBGE | ^CAGF E=C^FC | B,GFE D_B,EB, | %222
 A,CDE FA,B,F | CE^F^G A^C^DA | EGAB cE^Fc | GB^c^d e^G^Ae | Bde^f gB^cg | d^fad' afdB | %228
 ^Gedc B=G^cG | ^FdcB A=FBF | EGAB cE^Fc | GBEd Ac^Fe | BdGf ceAg | d^fAd ^FADc | z4 g2 a2 | %235
 b2 ag ^f2 g2 | a4 e2 ^f2 | g2 ^f2 g2 ag | ^f2 g2 a2 a2 | g2 a2 b2 b2 | a2 b2 c'2 c'2 | %241
 b2 c'2 d'2 d'2 | e'2 d'c' b2 ^c'2 | d'2 [^fd']2 a2 b2 | c'2 b2 c'2 d'c' | b2 a2 b2 b2 | %246
 b2 b2 a2 a2 | a2 a2 g2 g2 | g2 g2 ^f2 f2 | g4 D4 | B,2 CD E2 D2 | C4 F2 E2 | D2 ED C2 D2 | %253
 E2 DC G4 | ^F2 GA B2 A2 | G4 c2 B2 | A2 BA G2 A2 | B4 g4 | e2 fg a2 g2 | f4 _b2 a2 | g2 ag f2 g2 | %261
 a4 z4 | z4 g4 | _a4 =a4 | _b4 z2 =b2 | c'2 _b2 a2 g2 | ^f2 ed g4 | g2 a_b a2 g2 | f4 f4 | e4 e4 | %270
 ^f4 z4 | z4 g4 | g4 f2 ed | _a4 z2 g2 | g2 fe f4 | f2 ed e2 fe | d2 ef g2 f2 | e4 a2 g2 | %278
 ^f2 gf e2 f2 | g4 g2 f2 | e2 fe d2 e2 | f2 gf e2 fe | d2 ed c4- | c2 dc B2 AB | c2 d_e f2 e2 | %285
 d4 g2 f2 | e2 fe d2 e2 | f4 f2 f2 | f2 z2 e2 z2 | ^d2 =dc a2 g2 | ^f2 gf egfa | g2 d2 e2 c2 | %292
 c3 d c/4B/4c/4B/4c/4B/4c/4B/4 c/4B/4c/4B/4c | c2 CD ECFD | GECE G_BAG | AFDE ^FDGE | A^FDF AcBA | %297
 BdGA BGcA | dBGB dfed | ecGc eg^fe | ^fcAc fagf | gdBd gbag | a^fcf ac'ba | bgdg bd'gb | %304
 c'agf ec'^fc' | bgfe d_beb | f_bag af=bf | egab c'ac'g | fabc' d'bd'a | gbc'd' e'c'e'_b | %310
 ac'd'e' f'd'f'c' | bd'e'f' g'e'g'd' | c'af'd' bge'c' | afd'b gec'a | fd'c'b afbf | ec'ba g_eae | %316
 d_bag ^fdgd | cagf ec^fc | Bg^fe dcBA | BGd^F GDBG | dBgd BGDB, | G,AGF c2 d2 | e2 dc B2 c2 | %323
 d4 A2 B2 | c2 B2 c2 dc | B2 c2 d2 d2 | c2 d2 e2 e2 | d2 e2 f2 f2 | e2 ^f2 g2 g2 | a2 gf e2 ^f2 | %330
 g2 g2 d2 e2 | f2 e2 f2 gf | e2 d2 e2 e2 | e2 e2 d2 d2 | d2 d2 c2 ed | c2 g2 g2 ^f2 | g4 G4 | %337
 A2 GF E2 F2 | G4 D2 E2 | F2 E2 F2 GF | z4 c2 d2 | e2 dc B2 c2 | d4 A2 B2 | c2 B2 c2 dc | B4 e4- | %345
 e4 d4- | d2 B2 g4 | a2 gf e2 ^f2 | g4 d2 e2 | f2 e2 f2 gf | e2 d2 e2 f2 | g2 f2 g2 ag | f2 g2 a4 | %353
 ^g4 =g4 | ^f4 =f4 | e4 ^f4 | z2 gf e2 d2 | ^c2 ag a2 _d2 | d2 fe d2 c2 | B2 gf g2 B2 | c2 d2 e4 | %361
 A4 d4 | z GAB c4 | D4 E4 | F2 E2 F2 GF | E4 ^F4 | z4 d4 | ^c4 =c4 | B4 _B4 | A4 B4 | E2 cB A2 G2 | %371
 ^F2 dc d2 _G2 | G2 _BA G2 F2 | E2 c_B c2 E2 | F2 AG FGEF | DAdc BAGF | E2 cB AceG | FAfe dcBA | %378
 GA/B/cd efg_B | Aeag fg/a/de/f/ | Bdef g4 | Aagf e2 ^f2 | Ggfe d2 e2 | e2 fe f2 gf | e2 z2 z4 | %385
 e2 z2 d2 z2 | d2 cB c2 de | f2 fe f2 gf | e2 z2 z4 | e2 z2 z2 e2 | f2 z2 z4 | ^f2 z2 z2 f2 | %392
 g2 z2 g4 | g4 f4 | f4 e4 | e2 de fgac | BdcB AGFd | gBcE DcfB | cd_ef gabc' | ^f_edc Bc^FA, | %400
 G,CEG cege | cGEC G,2 B2 | !fermata!g4 z4 | z8 || %404
[K:F][M:4/4][Q:1/4=72]"^Largo" A/B/c/f/ g/e/f/A/ d/B/c z/ B/A/G/ | %405
 F/E/D/F/ G/A/B/d/ c/4B/4A/A z/ A/B/c/ | d/A/B/d/ g/a/b/g/ f/e/d/c/ f/F/E/F/ | %407
 G/E/F/d/ E/G/c/B/ B/4A/4B/4A/4G/F/ dd | dcff fe- e/a/d/c/ | %409
 =B/G/g z/ c/d/e/ e/c/c/4B/4A/ z/ d/e/f/ | f/d/c/=B/ a/f/g/B/ c z/ a/ c/4B/4c/4B/4c/4B/4c/ | %411
 E/F/G/c/ d/=B/c/A/ F/E/F z/ D/F/A/ | d/f/d/=B/ GG/4F/4E/4F/4 F/4E/4F/4E/4D/C/ _BB | %413
 B/G/A/c/ cc c/A/B/d/ _e/d/e/b/ | a/g/a/c/ d/c/d/_a/ g/^f/g/=B/ c/B/c/_e/ | %415
 ^F/A/c z/ _e/d/c/ B/c/d/b/ ag/4^f/4g/ | %416
 z/ b/d'/4c'/4d'/ F/>a/g/4f/4e/4d/4 c/=B/c/d/ e/g/4f/4g/a/ | %417
 b/g/a E/>g/f/4e/4d/4c/4 B/A/B/d/ g/e/f/B/ | A/G/A/c/ g/e/f/A/ G/=B/d/f/ a/g/4f/4e/f/ | %419
 e/f/4e/4d/c/ z/ F/G/A/ A/F/F/4E/4D/ z/ G/A/B/ | B/G/F/E/ d/B/c/E/ F z/ d/ F/4E/4F/4E/4F/4E/4F/ | %421
 F/G/A/c/ _E/D/E/c/ D/4=E/4F/4G/4A/d/ g/d/=B/F/ | %422
 E/4G/4A/4=B/4c/4d/4e/4f/4 g/4e/4c/4d/4e/4f/4g/4a/4 b/4a/4b/4d'/4c' _B/>e/f/4e/4d/4c/4 | %423
 f/e/4d/4c/d/ AG/4F/4G/ f/_a/4g/4a =B/>a/g/4f/4e/4f/4 | %424
 c/4e/4f/4b/4a/4g/4e/4f/4 f/4e/4f/4e/4f/4e/4f/ f4 | z8 || %426
[K:C][M:3/4][Q:1/4=132]"^Allegro" c/d/e/f/ gc d/c/B/A/ | G/A/B/c/ d/e/f/a/ g/f/e/d/ | %428
 c/d/e/f/ gc d/c/B/A/ | G/A/B/d/ c/B/A/G/ F/E/F/D/ | E/c/B/c/ d/c/B/c/ g/c/B/c/ | %431
 E/c/g/c/ a/c/_b/c/ a/c/g/c/ | F/c/B/c/ d/c/B/c/ a/c/B/c/ | F/c/a/c/ F/c/E/c/ F/c/D/c/ | %434
 E/c/B/c/ d/c/B/c/ g/c/B/c/ | E/c/g/c/ a/c/_b/c/ a/c/g/c/ | F/c/B/c/ d/c/B/c/ a/c/B/c/ | %437
 F/c/a/c/ F/c/E/c/ F/c/D/c/ | E/c/B/c/ g/c/B/c/ A/c/B/c/ | D/c/B/c/ f/c/B/c/ G/c/B/c/ | %440
 C/D/E/F/ G/c/d/e/ f/e/d/c/ | d/c/B/A/ Gd F/E/F/D/ | E/G/A/B/ cg _B/A/B/G/ | %443
 A/B/^c/_b/ g/f/e/d/ c/B/A/G/ | F/E/D/E/ Fd A/G/F/E/ | D/C/B,/C/ D/A/F/E/ D/C/B,/A,/ | %446
 G,/F/E/D/ G,/E/D/C/ G,/G/F/E/ | D/B,/A,/G,/ F/B,/A,/G,/ D/C/B,/A,/ | %448
 G,/F/E/D/ G,/E/D/C/ G,/G/F/E/ | D/B,/A,/G,/ G/B,/A,/G,/ D/C/B,/A,/ | G,/F/E/F/ B/F/E/F/ d/F/E/F/ | %451
 G,/E/d/E/ c/E/B/E/ c/E/G,/E/ | A,/G/^F/G/ ^c/G/F/G/ e/G/F/G/ | A,/^F/e/F/ d/F/^c/F/ d/F/A,/F/ | %454
 D/c/B/c/ d/c/B/c/ a/c/B/c/ | D/c/a/c/ B/a/c/a/ B/a/A/a/ | D/B/A/B/ c/B/A/B/ a/B/A/B/ | %457
 D/B/g/B/ A/g/B/g/ ^c/g/d/g/ | D/^c/B/c/ d/c/B/c/ g/c/B/c/ | D/^c/g/c/ e/g/c/g/ A/g/c/g/ | %460
 D/d/g/e/ ^f/d/g/e/ f/d/g/e/ | ^f/e/d/e/ f/g/a/b/ c'/b/c'/a/ | d/c'/_b/a/ d/b/a/g/ d/d'/c'/b/ | %463
 a/^f/e/d/ c'/f/e/d/ a/g/f/e/ | d/c/_B/A/ d/B/A/G/ _e/d/c/B/ | A/^F/E/D/ c/F/E/D/ ^f/d/e/f/ | %466
 g/a/_b/c'/ d'g b/a/g/^f/ | g/d/c/B/ d/c/B/A/ G2 | G/A/B/c/ dG A/G/^F/E/ | %469
 D/E/^F/G/ A/B/c/e/ d/c/B/A/ | G/A/B/c/ dG A/G/^F/E/ | D/E/^F/A/ G/F/E/D/ C/B,/C/A,/ | %472
 B,/G/^F/G/ A/G/F/G/ d/G/F/G/ | B,/G/d/G/ e/G/f/G/ e/G/d/G/ | C/G/^F/G/ A/G/F/G/ e/G/F/G/ | %475
 C/G/e/G/ C/G/B,/G/ C/G/A,/G/ | B,/G/^F/G/ A/G/F/G/ d/G/F/G/ | B,/G/d/G/ e/G/f/G/ e/G/d/G/ | %478
 C/G/^F/G/ A/G/F/G/ e/G/F/G/ | C/G/e/G/ C/G/D/G/ E/G/D/G/ | ^C/A/^G/A/ B/A/G/A/ e/A/G/A/ | %481
 ^C/A/e/A/ f/A/g/A/ f/A/e/A/ | D/A/^G/A/ B/A/G/A/ f/A/G/A/ | D/A/f/A/ D/A/^C/A/ D/A/B,/A/ | %484
 ^C/A/^G/A/ B/A/G/A/ e/A/G/A/ | ^C/A/e/A/ f/A/g/A/ f/A/e/A/ | D/A/^G/A/ B/A/G/A/ f/A/G/A/ | %487
 D/A/f/A/ D/A/E/A/ F/A/D/A/ | G/A/_B/c/ d_b F/E/F/D/ | E/G/A/B/ c/d/e/f/ g/a/_b/g/ | %490
 a/g/f/e/ fa E/D/E/C/ | D/F/G/A/ _B/c/d/e/ f/g/a/f/ | g/f/e/d/ ^c/d/e/A/ G/F/G/E/ | %493
 A/G/F/E/ D/E/F/C/ _B,/A,/B,/G,/ | A,/G/F/E/ A,/F/E/D/ A,/A/G/F/ | %495
 E/^C/B,/A,/ G/C/B,/A,/ E/D/C/B,/ | A,/G/F/E/ A,/F/E/D/ A,/A/G/F/ | %497
 E/^C/B,/A,/ A/C/B,/A,/ E/D/C/B,/ | A,/G/^F/G/ ^c/G/F/G/ e/G/F/G/ | A,/F/e/F/ d/F/^c/F/ d/F/A,/F/ | %500
 ^G,/F/E/F/ B/F/E/F/ d/F/E/F/ | ^G,/F/d/F/ G,/E/D/E/ C/E/B,/E/ | A,/E/^F/^G/ A/B/c/A/ c/B/A/G/ | %503
 A/c/B/A/ e/d/c/B/ A/G/F/E/ | F/A/B/^c/ d/e/f/d/ f/e/d/=c/ | g/d/c/B/ d/c/B/A/ G/F/E/D/ | %506
 E/G/A/B/ c/d/e/f/ g/e/d/c/ | a/c/_B/A/ c/B/A/G/ F/E/D/C/ | D/F/G/A/ B/c/d/e/ f/e/d/c/ | %509
 b/f/e/d/ c/B/A/G/ F/E/F/D/ | E/G/D/G/ E/G/c/G/ e/G/c/G/ | B/d/A/d/ B/d/g/d/ b/d/g/d/ | %512
 e/g/d/g/ c/g/B/g/ A/g/a/g/ | ^f/e/d/e/ f/g/a/b/ c'/d'/e'/^f'/ | %514
 g'/d'/b/d'/ g/d'/a/d'/ b/d'/g/d'/ | f'/d'/b/d'/ g/d'/a/d'/ b/d'/g/d'/ | %516
 e'/c'/b/c'/ g/c'/e'/c'/ g'/c'/e'/c'/ | d'/b/a/b/ g/b/d'/b/ g'/b/d'/b/ | %518
 A/g/c'/b/ a/c'/g/c'/ ^f/c'/e/c'/ | D/c/a/g/ ^f/a/e/a/ d/a/c/a/ | B/d/g/^f/ g/d/e/c/ d/B/c/A/ | %521
 B/G/c/A/ B/G/c/A/ B/G/d/B/ | G/f/_e/d/ G/e/d/c/ G/g/f/e/ | d/B/A/G/ f/B/A/G/ d/c/B/A/ | %524
 G/F/_E/D/ G/E/D/C/ _A/G/F/E/ | D/B,/A,/G,/ F/B,/A,/G,/ B/G/A/B/ | c/d/e/f/ gc e/d/c/B/ | %527
 c/G/F/E/ G/F/E/D/ C2 |] %528
V:2
 z2 z4 | C2 C2 C2 | F2 D2 B2 | G2 G2 G2 | E2 E2 E2 | D2 D2 D2 | D2 D2 D2 | ^D2 D2 D2 | ^D2 D2 D2 | %9
 ^D2 E2 D2 | D2 D4 | z2 z4 | G>^F G>F G2 | z2 D2 D z | G,>A, G,>A, G,>B, | A,2 A,2 A,2 | %16
 A,2 A,2 A,2 | A,>B, A,>B, A,>C | G2 G2 G2 | G2 G2 G2 | G2 G2 G2 | A>G A>G A>F | G>F G>F G2 | %23
 E2 z2 A2 | A2 z2 z2 | D2 D2 D2 | E>D E>F G2 | A2 z z/ c/ B>A | G2 z2 G>G | A,2 A,2 A,2 | %30
 G,2 G,2 G,2 | G,2 G,2 G,2 | G2 A2 A2 | D2 z4 | z2 z4 | z2 z4 | F2 z4 | z2 z E D2 | G z z2 G,2 | %39
 A,2 z4 | =A,2- A,/G,/A,/B,/ C/D/_E/F/4G/4 | B,2- B,/ z/ z z2 | z6 | z A, G,2 z2 | CE z4 | z6 | %46
 !arpeggio!G,6 | z6 |[M:2/2] z4 z4 | z4 z4 | z4 z4 | z4 z4 | E2 FG A4 | ^G4 =G4 | ^F4 =F4 | %55
 E2 D2 E2 ^F2 | G2 F2 G2 E2 | F2 E2 F2 D2 | E4 E4 | E4 A4 | D4 z4 | D8 | E4 A4 | E4 E4 | D4 F4 | %65
 E4 z4 | D4 z4 | c4 D4 | G4 z4 | G2 z2 z2 G2 | F2 z2 z4 | F2 z2 z2 F2 | z4 C4 | D2 CB, A,2 B,2 | %74
 C4 G,2 A,2 | _B,2 A,2 B,2 CB, | A,4 B,4 | C2 B,2 C2 DC | B,2 A,2 _B,4 | A,4 z4 | G,4 z4 | D4 G,4 | %82
 C2 z2 z4 | C2 z2 z2 C2 | _B,2 z2 z4 | _B,2 z2 z2 B,2 | A,2 z2 z4 | B, z z2 z4 | C2 z2 z4 | %89
 D z z2 z4 | E z z2 z4 | F z z2 z4 | z4 E2 D2 | E z z2 E2 z2 | B,2 z2 _B,2 z2 | F2 z2 z4 | %96
 G2 GF G2 AG | F2 FE F2 GF | E2 z2 A2 z2 | D2 z2 G2 z2 | c2 CD EGFA | G2 _B,A, B,2 G2 | A2 z2 z4 | %103
 A2 CB, C2 A2 | z2 B,2 E2 D2 | E4 D2 =C2 | G4 G4 | F2 z2 z4 | G, z z2 z4 | z4 z4 | _A, z z2 z4 | %111
 z4 z4 | z4 z4 | z4 z2 F2 | C2 z2 z4 | z4 z4 | z4 z4 | z4 z4 | z4 z4 | z4 z4 | z4 z4 | z4 z4 | %122
 z4 z4 | z4 z4 | z4 z4 | z4 z4 | z4 z4 | z4 z4 | z4 z4 | z4 z4 | z4 z4 | z4 z4 | z4 z4 | z4 z4 | %134
 z4 z4 | z4 z4 | z4 z4 | z4 z4 | z4 z4 | z4 z4 | z4 z4 | z4 A4 | c2 BA ^G2 A2 | B4 ^F2 ^G2 | %144
 A2 G2 A2 _BA | G2 z2 z4 | G4 F2 ED | G2 A2 D4 | F2 ED E2 D2 | E4 E4 | D4 G4 | E4 _E4 | D4 z4 | %153
 D4 D4 | E2 D2 E2 ^F2 | G4 z2 G2 | A2 G2 A2 B2 | z4 E2 D2 | E2 DC B,2 C2 | D4 A,2 B,2 | %160
 C2 B,2 C2 DC | B,2 CD E2 D2 | ^C4 =C4 | B,4 _B,4 | A,4 D4- | D2 CB, C4 | B,4 E4- | E2 DC D4- | %168
 D2 CB, C4- | C2 B,A, B,2 G,2 | C2 D2 E4 | D4 z4 | A4 D4 | G4 E4 | E4 A4 | ^G4 E4 | B,4 B,4 | %177
 A,4 A,4 | G,4 A,4 | D4 D4 | A,4 D4 | G,4 G,4 | D4 G,4 | E4 D2 E2 | F2 G2 A4 | D4 z4 | z4 A2 B2 | %187
 c2 B2 E2 F2 | G2 F2 B,2 C2 | D2 C2 D2 ED | C2 _B,2 C2 DC | _B,4 B,4 | A4 D4 | G2 G2 F2 GF | %194
 G,4 A,4 | D4 z4 | e2 dc B2 c2 | d4 A2 B2 | c2 B2 c2 dc | B4 e4- | e4 G4 | A2 GF E2 ^F2 | %202
 G4 D2 E2 | F2 E2 F2 GF | E4 E4 | ^F2 E2 F2 ^G2 | A4 E4 | E4 ^F4 | ^F4 F4 | E4 E2 D2 | E4 z4 | %211
 E4 z2 E2 | E4 ^D4 | E2 z2 z4 | z4 z4 | z4 z4 | z4 z4 | z4 z4 | z4 z4 | z4 z4 | z4 z4 | z4 z4 | %222
 z4 z4 | z4 z4 | z4 z4 | z4 z4 | z4 z4 | z4 z4 | z4 z4 | z4 z4 | z4 z4 | z4 z4 | z4 z4 | z4 z4 | %234
 Bedc BDcD | dDcB ADBD | cDBD cDdc | BDAD BD ^c2 | dDdD cDdD | eDeD dDeD | ^fDfD eDfD | %241
 gDgD ^fD=fD | eD ^f2 gDgD | ^fDfD =fDfD | eDeD _eD e2 | dDcD dDed | ^cDBD =cDdc | BDAD _BDcB | %248
 ADBD cDdc | D4 z4 | z4 z4 | z4 z4 | z4 z4 | z4 B,2 C2 | D4 ^D4 | E4 E4 | F4 z2 ^F2 | G2 F2 E2 D2 | %258
 E4 E4 | D4 G4 | G4 z2 G2 | F4 ^F4 | G4 G4 | F4 D4 | G4 z4 | G4 _E4 | D4 z4 | E4 z2 E2 | D4 D4 | %269
 ^G2 ^FE E4 | ^D4 z2 D2 | E2 F2 E2 D2 | E4 D4 | D2 EF E2 D2 | E4 D4 | G4 G4 | F2 E2 D4 | C4 z4 | %278
 A4 d2 c2 | B2 cB A2 B2 | c4 z2 _B2 | A2 _BA G2 AG | F2 GF E2 FE | z4 G,4 | G4 F4 | _B,4 z2 G2 | %286
 G4 z2 G2 | F4 D2 D2 | G2 CD G2 z2 | A,4 z4 | D4 z4 | z2 B,2 C2 A,2 | G,4 G,4 | z4 z4 | z4 z4 | %295
 z4 z4 | z4 z4 | z4 z4 | z4 z4 | z4 z4 | z4 z4 | z4 z4 | z4 z4 | z4 z4 | z4 z4 | z4 z4 | z4 z4 | %307
 z4 z4 | z4 z4 | z4 z4 | z4 z4 | z4 z4 | z4 z4 | z4 z4 | z4 z4 | z4 z4 | z4 z4 | z4 z4 | z4 z4 | %319
 z4 z4 | z4 z4 | z4 EG,FG, | GG,FE DG,EG, | FG,EG, FG,GF | EG,DG, EG, ^F2 | GG,GG, FG,GG, | %326
 AG,AG, GG,AG, | BG,_BG, AG,=BG, | cG,cG, BG,_BG, | AG, B2 cG,cG, | BG,BG, _BG,BG, | %331
 AG,AG, _AG, A2 | GG,FG, GG,AG | FG,EG, FG,GF | EG,DG, EG,GF | EG,DG, EG,_EG, | D4 z4 | z4 C4 | %338
 B,4 _B,4 | A,2 G,2 A,2 B,2 | C2 B,2 A,4 | G,4 G,2 A,2 | B,2 C2 D4 | A,4 A,4 | G,4 z4 | %345
 F2 E2 F2 D2 | E4 E4 | E4 A4 | D4 G,4 | D4- D4 | E4 A4 | E4 E4 | D4 F4 | E4 z4 | D4 z4 | A4 D4 | %356
 G4 z4 | G2 z2 z2 G2 | F2 z2 z4 | F2 z2 z2 F2 | z4 C4 | D2 CB, A,2 B,2 | C4 G,2 A,2 | %363
 _B,2 A,2 B,2 CB, | A,4 B,4 | C2 B,2 C2 DC | B,2 A,2 _B,4 | A,4 z4 | G,4 D2 E2 | D4 G,4 | %370
 C2 z2 z4 | C2 z2 z2 C2 | _B,2 z2 z4 | _B,2 z2 z2 B,2 | A,2 z2 z4 | B,2 z2 z4 | C2 z2 z4 | %377
 D z z2 z4 | E z z2 z4 | F z z2 z4 | z4 E2 D2 | E z z2 E2 z2 | B,2 z2 _B,2 z2 | F2 z2 z4 | %384
 G2 GF G2 AG | F2 FE F2 GF | E2 z2 A2 z2 | D2 z2 G2 z2 | c2 CD EGFA | G2 _B,A, B,2 G2 | %390
 A,2 DE FGFG | A2 CB, C2 A2 | z2 B,2 E2 D2 | E4 z4 | G4 G4 | F2 z2 z4 | G, z z2 z4 | z8 | %398
 _A, z z2 z4 | z8 | z8 | z4 z2 F2 | E4 z4 | z8 ||[K:F][M:4/4] F z z2 E z z2 | D z z2 E z z2 | %406
 F z z2 B z z A, | B, z C z F z z/ E/F/D/ | E/A,/A z/ G/A/F/ G/C/c F z | F z E z F z F z | %410
 =B z/ B/ z z/ F/ z z/ c/ G2 | C z z2 C z z2 | z2 _C z =C z z/ D/E/C/ | F z z/ E/^F/D/ G z z2 | %414
 _e z z2 d z z2 | A, z ^F z G z c z | D z z2 E z z2 | c z z2 D z z2 | C z z2 _C z z2 | %419
 G z A, z B, z B, z | C z z z/ B,/ A,/G,/A,/B,/ C2 | z8 | z8 | A z/ F/ C2 _A/ z/ z z2 | C z G2 A4 | %425
 z8 ||[K:C][M:3/4] z6 | z6 | z6 | z6 | z6 | z6 | z6 | z6 | z6 | z6 | z6 | z6 | z6 | z6 | z6 | z6 | %442
 z6 | z6 | z6 | z6 | z6 | z6 | z6 | z6 | z6 | z6 | z6 | z6 | z6 | z6 | z6 | z6 | z6 | z6 | z6 | %461
 z6 | z6 | z6 | z6 | z6 | z6 | z6 | z6 | z6 | z6 | z6 | z6 | z6 | z6 | z6 | z6 | z6 | z6 | z6 | %480
 z6 | z6 | z6 | z6 | z6 | z6 | z6 | z6 | z6 | z6 | z6 | z6 | z6 | z6 | z6 | z6 | z6 | z6 | z6 | %499
 z6 | z6 | z6 | z6 | z6 | z6 | z6 | z6 | z6 | z6 | z6 | z6 | z6 | z6 | z6 | z6 | z6 | z6 | z6 | %518
 z6 | z6 | z6 | z6 | z6 | z6 | z6 | z6 | z6 | z6 |] %528
V:3
 x6 | x6 | B,2 B,2 B,2 | _B,2 B,2 B,2 | A,2 A,2 A,2 | x6 | x6 | x6 | x6 | x6 | x6 | x6 | x6 | x6 | %14
 x6 | x6 | x6 | x6 | B,2 B,2 B,2 | C2 C2 C2 | _B,2 B,2 B,2 | A,2 z2 D2 | G,2 z2 G,2 | ^C2 z2 C2 | %24
 D2 z4 | G,2 G,2 G,2 | C2 z2 C2 | F>E F>E D>C | B,2 z2 C>B, | x6 | x6 | x6 | G,2 G,2 G,2 | G,2 z4 | %34
 x6 | x6 | x6 | x6 | C z z4 | x6 | x6 | x6 | x6 | x6 | x6 | x6 | x6 | x6 |[M:2/2] x8 | x8 | x8 | %51
 x8 | x8 | x8 | x8 | x8 | x8 | x8 | x8 | A,4 A,4 | G,4 G,4 | x8 | A,4 z4 | z4 A,4 | x8 | x8 | x8 | %67
 x8 | x8 | x8 | x8 | x8 | x8 | x8 | x8 | x8 | x8 | x8 | x8 | x8 | x8 | x8 | x8 | x8 | x8 | x8 | %86
 x8 | x8 | x8 | x8 | x8 | x8 | x8 | ^C z z2 =C2 z2 | x8 | A,2 z2 z4 | G,2 z2 z4 | x8 | x8 | x8 | %100
 x8 | x8 | A,2 DE FGFG | x8 | x8 | ^C2 A,2 z4 | B,2 G,2 C2 _B,2 | A,2 z2 z4 | x8 | x8 | x8 | x8 | %112
 x8 | x8 | x8 | x8 | x8 | x8 | x8 | x8 | x8 | x8 | x8 | x8 | x8 | x8 | x8 | x8 | x8 | x8 | x8 | %131
 x8 | x8 | x8 | x8 | x8 | x8 | x8 | x8 | x8 | x8 | x8 | x8 | x8 | x8 | x8 | x8 | x8 | z4 ^C2 z2 | %149
 x8 | x8 | x8 | x8 | x8 | x8 | x8 | x8 | z4 C2 z2 | x8 | x8 | x8 | x8 | x8 | x8 | x8 | x8 | x8 | %167
 x8 | x8 | x8 | x8 | x8 | x8 | x8 | ^C4 D4 | D2 CB, C2 DC | x8 | x8 | x8 | x8 | x8 | x8 | x8 | %183
 C4 _B,4 | A,2 z2 A,4 | G,4 z4 | x8 | x8 | x8 | x8 | x8 | x8 | A,4 G,4 | G,2 A,2 _B,4 | G,2 z2 z4 | %195
 x8 | x8 | x8 | x8 | x8 | x8 | x8 | z4 E,4 | D4 G,4 | C4 C4 | B,4 B,4 | A,4 C4 | G,4 B,4 | %208
 A,4 B,4 | A,4 B,4 | C4 z4 | G,4 z2 A,2 | B,4 z4 | x8 | x8 | x8 | x8 | x8 | x8 | x8 | x8 | x8 | %222
 x8 | x8 | x8 | x8 | x8 | x8 | x8 | x8 | x8 | x8 | x8 | x8 | x8 | x8 | x8 | x8 | x8 | x8 | x8 | %241
 x8 | x8 | x8 | x8 | x8 | x8 | x8 | x8 | G,4 z4 | x8 | x8 | x8 | x8 | x8 | x8 | x8 | x8 | C4 A,4 | %259
 z4 G,4 | C4 z2 C2 | x8 | z4 C4 | x8 | x8 | C4 z4 | x8 | z4 z2 A,2 | x8 | D4 C2 B,A, | x8 | x8 | %272
 ^C2 B,A, z4 | x8 | C4 z4 | B,4 C4 | z4 G,4 | x8 | x8 | x8 | x8 | x8 | x8 | x8 | _A,4 =A,4 | %285
 z4 z2 =B,2 | C4 z2 ^C2 | D4 z2 C2 | B,2 z2 C2 _B,2 | x8 | C4 z4 | x8 | x8 | x8 | x8 | x8 | x8 | %297
 x8 | x8 | x8 | x8 | x8 | x8 | x8 | x8 | x8 | x8 | x8 | x8 | x8 | x8 | x8 | x8 | x8 | x8 | x8 | %316
 x8 | x8 | x8 | x8 | x8 | x8 | x8 | x8 | x8 | x8 | x8 | x8 | x8 | x8 | x8 | x8 | x8 | x8 | x8 | %335
 x8 | G,4 z4 | x8 | x8 | x8 | x8 | x8 | x8 | x8 | x8 | x8 | x8 | A,4 A,4 | G,4 z4 | x8 | A,4 z4 | %351
 z4 A,4 | x8 | x8 | x8 | x8 | x8 | x8 | x8 | x8 | x8 | x8 | x8 | x8 | x8 | x8 | x8 | x8 | x8 | x8 | %370
 x8 | x8 | x8 | x8 | x8 | x8 | x8 | x8 | x8 | x8 | x8 | ^C z z2 =C2 z2 | x8 | A,2 z2 z4 | %384
 G,2 z2 z4 | x8 | x8 | x8 | x8 | A,2 z2 z4 | A,2 z2 z4 | z4 x4 | x8 | ^C2 A,2 D2 =C2 | %394
 B,2 G,2 C2 _B,2 | A,2 z2 z4 | x8 | x8 | x8 | x8 | x8 | x8 | !fermata!C4 z4 | x8 || %404
[K:F][M:4/4] x8 | z4 C z z2 | B, z z2 z4 | x8 | x8 | x8 | G z z2 E/D/C/F/ z2 | x8 | x8 | x8 | %414
 F z z2 _E z z2 | z4 z2 D z | G, z z2 z4 | F z z2 z4 | x8 | B, z z2 z4 | x8 | x8 | x8 | %423
 z4 =B,/ z/ z z2 | z2 C2 F4 | x8 ||[K:C][M:3/4] x6 | x6 | x6 | x6 | x6 | x6 | x6 | x6 | x6 | x6 | %436
 x6 | x6 | x6 | x6 | x6 | x6 | x6 | x6 | x6 | x6 | x6 | x6 | x6 | x6 | x6 | x6 | x6 | x6 | x6 | %455
 x6 | x6 | x6 | x6 | x6 | x6 | x6 | x6 | x6 | x6 | x6 | x6 | x6 | x6 | x6 | x6 | x6 | x6 | x6 | %474
 x6 | x6 | x6 | x6 | x6 | x6 | x6 | x6 | x6 | x6 | x6 | x6 | x6 | x6 | x6 | x6 | x6 | x6 | x6 | %493
 x6 | x6 | x6 | x6 | x6 | x6 | x6 | x6 | x6 | x6 | x6 | x6 | x6 | x6 | x6 | x6 | x6 | x6 | x6 | %512
 x6 | x6 | x6 | x6 | x6 | x6 | x6 | x6 | x6 | x6 | x6 | x6 | x6 | x6 | x6 | x6 |] %528
V:4
 x6 | x6 | x6 | d2 d2 d2 | ^c2 c2 c2 | A>B A>B A>B | c_e ed dc | B2 B2 B2 | c2 A2 B2 | c2 ^c2 =c2 | %10
 _Bc A4 | x6 | x6 | x6 | x6 | G>A G>A G>A | F2 F2 F2 | ^F2 F2 F2 | x6 | d>c d>c d>c | c2 c2 c2 | %21
 c>_B c>B c>A | _B>A B>A B2 | A2 z2 e2 | d>^c d>c d>=c | B2 B2 B2 | c>B c>d c>_B | x6 | %28
 d2 z2 c3/2 z/ | z2 ^F2 F2 | G2 F>E F>E | E2 E>D E>F | c2 c2 c2 | B2 e>d e>d | ^c>A d>=c d>c | %35
 B>G c>_B A>G | e>d e>c d>e | B3 c B2 | c z G2 D2 | D2- D/_E/F/G/ A/B/c/4d/4_e/4B/4 | %40
 ^F2- F/ z/ z z2 | _A2- A/ z/ z z2 | C>B, C>B, C>D | _E^F G2 D2 | E z z4 | x6 | !arpeggio!G6 | x6 | %48
[M:2/2] x8 | x8 | x8 | x8 | x8 | x8 | x8 | x8 | x8 | x8 | z4 g4 | ^c4 =c4 | B4 _B4 | A2 G2 A2 B2 | %62
 c4 c4 | B4 ^c4 | d4 c2 d2 | e2 dc B2 ^c2 | d4 A2 B2 | c2 B2 c2 dc | B4 z4 | x8 | x8 | x8 | %72
 E2 F2 G4 | ^F4 =F4 | E4 _E4 | x8 | x8 | x8 | G4 G4 | A2 GF E2 ^F2 | G4 D2 E2 | F2 E2 F2 GF | x8 | %83
 x8 | x8 | x8 | x8 | x8 | x8 | x8 | x8 | x8 | F z z2 c2 _B2 | E z z2 A2 z2 | Ggfe G2 z2 | %95
 c2 z2 z4 | c2 z2 z4 | A2 z2 z4 | x8 | c2 z2 B2 z2 | x8 | c2 z2 z2 c2 | c2 z2 z4 | d2 z2 z2 c2 | %104
 B2 z2 B4 | A4 A4 | d4 c4 | c2 z2 z4 | F z z2 z4 | x8 | _E z z2 z4 | x8 | x8 | x8 | E2 z2 z4 | x8 | %116
 x8 | x8 | x8 | x8 | x8 | x8 | x8 | x8 | x8 | x8 | x8 | x8 | x8 | x8 | x8 | x8 | x8 | x8 | x8 | %135
 x8 | x8 | x8 | x8 | x8 | x8 | x8 | x8 | x8 | x8 | x8 | z4 d4 | d2 z2 _B4 | A4 A2 A2 | %149
 ^c2 d2 B2 c2 | d2 c2 d2 _ed | ^c4 =c4 | c2 _BA BdcB | A4 A2 B2 | c2 B2 c2 dc | x8 | x8 | %157
 c2 B2 A2 z2 | ^G2 z2 =G4 | ^F4 =F4 | x8 | x8 | x8 | x8 | x8 | x8 | x8 | x8 | x8 | z4 G4 | %170
 G2 z2 B2 c2 | d4 A2 B2 | c2 B2 c2 dc | B2 A2 B2 cB | A4 A4 | B4 A4 | ^F2 E2 F2 ^G2 | A4 E2 ^F2 | %178
 G2 ^F2 G2 AG | ^F4 =F4 | E4 ^F4 | G2 FE D2 E2 | F2 E2 F2 GF | z4 d4 | d2 d2 c4 | B4 z4 | x8 | x8 | %188
 x8 | x8 | x8 | z4 G4 | d4 _B4 | _B2 z2 z4 | E2 F2 G2 AG | ^F4 d4 | x4 z4 | x8 | x8 | x8 | z4 d4 | %201
 ^c4 =c4 | B4 _B4 | A4 B4 | B4 A4 | z4 =d4 | c4 c4 | B4 ^d4 | ^c4 ^d4 | e2 d2 c2 B2 | A4 z4 | %211
 B4 z2 c2 | B4 A4 | x8 | x8 | x8 | x8 | x8 | x8 | x8 | x8 | x8 | x8 | x8 | x8 | x8 | x8 | x8 | x8 | %229
 x8 | x8 | x8 | x8 | x8 | x8 | x8 | x8 | x8 | x8 | x8 | x8 | x8 | x8 | x8 | x8 | x8 | x8 | x8 | %248
 x8 | B4 z4 | x8 | x8 | x8 | x8 | x8 | x8 | x8 | z4 B4 | c4 ^c4 | d4 d4 | _e4 z2 =e2 | %261
 f2 e2 d2 c2 | B2 cd e2 d2 | c4 f2 e2 | d2 ed c2 d2 | e4 c4 | c4 _B2 AG | ^c4 z2 c2 | %268
 d2 c2 _B2 A2 | B4 A4 | A2 Bc B2 A2 | G2 z2 B4 | A4 A4 | B4 z2 _B2 | A4 A2 Bc | d4 c4 | z4 B4 | %277
 G2 AB c2 B2 | x8 | x8 | x8 | x8 | x8 | D4 G4 | G4 c4 | F4 z2 d2 | c4 z2 _B2 | A2 Bc B2 A2 | %288
 d2 z2 c2 z2 | ^F4 z4 | A4 z4 | x8 | G4 D4 | x8 | x8 | x8 | x8 | x8 | x8 | x8 | x8 | x8 | x8 | x8 | %304
 x8 | x8 | x8 | x8 | x8 | x8 | x8 | x8 | x8 | x8 | x8 | x8 | x8 | x8 | x8 | x8 | x8 | x8 | x8 | %323
 x8 | x8 | x8 | x8 | x8 | x8 | x8 | x8 | x8 | x8 | x8 | x8 | z2 B2 c2 A2 | G4 z4 | x8 | x8 | x8 | %340
 E2 D2 E2 ^F2 | G4 G2 G2 | ^F4 =F4 | E2 D2 E2 ^F2 | G2 F2 G2 E2 | x8 | z4 e2 d2 | ^c4 =c4 | %348
 B4 _B4 | A2 G2 A2 B2 | c4 c4 | B4 ^c4 | d4 c2 d2 | e2 dc B2 ^c2 | d4 A2 B2 | c2 B2 c2 dc | B4 z4 | %357
 x8 | x8 | x8 | E2 F2 G4 | ^F4 =F4 | E4 _E4 | x8 | x8 | x8 | G4 G4 | A2 GF E2 ^F2 | G4 D2 E2 | %369
 F2 E2 F2 GF | x8 | x8 | x8 | x8 | x8 | x8 | x8 | x8 | x8 | x8 | F z z2 c2 _B2 | E z z2 A2 z2 | %382
 d z z2 G2 z2 | c2 z2 z4 | c2 z2 z4 | A2 z2 z4 | x8 | c2 z2 B2 z2 | x8 | c2 z2 z2 c2 | c2 z2 z4 | %391
 d2 z2 z2 c2 | B2 z2 B4 | A4 A4 | d4 c4 | c2 z2 z4 | F z z2 z4 | x8 | _E z z2 z4 | z4 x4 | x8 | %401
 x8 | c4 z4 | x8 ||[K:F][M:4/4] x8 | x8 | x8 | x8 | x8 | x8 | x8 | c z z2 z4 | x8 | x8 | x8 | x8 | %416
 x8 | x8 | x8 | c z z2 D z z2 | E z z2 z z/ F/ z2 | x8 | x8 | z4 d/ z/ z z2 | A z B2 z4 | x8 || %426
[K:C][M:3/4] x6 | x6 | x6 | x6 | x6 | x6 | x6 | x6 | x6 | x6 | x6 | x6 | x6 | x6 | x6 | x6 | x6 | %443
 x6 | x6 | x6 | x6 | x6 | x6 | x6 | x6 | x6 | x6 | x6 | x6 | x6 | x6 | x6 | x6 | x6 | x6 | x6 | %462
 x6 | x6 | x6 | x6 | x6 | x6 | x6 | x6 | x6 | x6 | x6 | x6 | x6 | x6 | x6 | x6 | x6 | x6 | x6 | %481
 x6 | x6 | x6 | x6 | x6 | x6 | x6 | x6 | x6 | x6 | x6 | x6 | x6 | x6 | x6 | x6 | x6 | x6 | x6 | %500
 x6 | x6 | x6 | x6 | x6 | x6 | x6 | x6 | x6 | x6 | x6 | x6 | x6 | x6 | x6 | x6 | x6 | x6 | x6 | %519
 x6 | x6 | x6 | x6 | x6 | x6 | x6 | x6 | x6 |] %528

